X: 20291
T: John Allen Francis MacLellan's
R: reel
M: 4/4
K: Adorian
|:e2 dg eAAB|dedB dGGg|e2 ed egab|gedB eAAB|
~e2 ed eAAB|dedB GABG|~A2 BA GABd|1 gedg eAAd:|2 gedg eAAB||
|:d2 dB dGGg|eged eAAB|d2 dB degb|egdg BAAB|
d2 dB dGGg|eged egab|~g2 eB degB|1 e2 dB eAAB:|2 e2 dB eA A2||

